X:196
T:Caledonian Laddy, The TS.196
T:Lea Riggs,The,aka TS.196
T:My Ain Kind Deary O,aka TS.196
T:Lollipop Man,The,aka TS.196
M:C
L:1/8
Q:1/2=90
S:Thomas Sands’ MS,1810,Lincolnshire
R:reel
O:England;Lincolnshire
Z:vmp.Ruairidh Greig, 2011
K:A
c>B|A<cE2E2F>G|A3BA2zc|B>AB>c d>cB>A|”triplet sign added”(3ABc F2F2c>B|
“triplet sign added”(3ABc E2E2F>G|A3BA2ze|fefg (3fga e>d|c<eA2A2:|
|:”q.inms”e2|f>ef>g az2c|d>cd>e fz2=A|B3c d>cB>A|(3ABc F2F2 c>B|
A<cE2E2F>G|”^cr in MS”A3BA2ze2|fefg f<a e<d|c<eA2A2:|]

